X: 073
M: 6/8
L: 1/8
K: C
V: 1
c2c c2e | c2c c2e | dBG Gge | dBG GAB |\
c2c c2e | cBc dBG | ABc dBG | c3  c2 :|
e/f/ |\
g2e g2e | c2c ceg | a2f a2f | d2d def |\
g2e g2e | c2c dBG | ABc dBG | c3  cef |
gfe gfe | cdc ceg | agf agf | ded def |\
gfe gfe | cde dBG | ABc dBG | c3  c2 |]
V: 2 clef=bass middle=d
z |
cgc' cgc' | cgc' cgc' | g3 b2c' | g3 g2f |\
e3 c3 | e3 g2e | f2e d2g |  c'ge c2 :|
z |\
[c3C3] [c3C3] | [e3E3] [e3E3] | [f3F3] [f3F3] | [g3G3] [g3G3] |\
c'3 c3 | e3 g2e | f2e d2g | c'ge c2z |
[c3C3] [c3C3] | [e3E3] [e3E3] | [f3F3] [f3F3] | [g3G3] [g3G3] |\
c'3 c3 | e3 g3 | f2e f2g | ceg c'2 |]


